/* XPM */
static char * greystone_south_xpm[] = {
"64 64 17 1",
" 	c #000000",
".	c #2C2C2C",
"+	c #202020",
"@	c #7C7C7C",
"#	c #848400",
"$	c #706C00",
"%	c #484848",
"&	c #383838",
"*	c #707070",
"=	c #646464",
"-	c #585400",
";	c #404000",
">	c #545454",
",	c #9C9C00",
"'	c #8C8C8C",
")	c #4C4C4C",
"!	c #5C5C5C",
"                                                                ",
"..........+@#####@@@@@@$$$@  %%@@@@@###%%&. ++++++++++..........",
"..........+@*$$$$&%##*==##%  %==%#&#---;..   %---->>>>>+++++++++",
"%%%%%%%% .+@*$$$;&##-===;$&  &@>%&#&;;;.&.   -#,-;%>=###&>##>>>>",
"*=$>>%%% .+@*--;;&#-%%&>>-.  &=%>%%%&;;.%.   -,$;&&>@#,,+&##;&**",
"=%$$.%&% .+@=-;;%&&%&->>%;.  +%#-%=>&;.%..   -,;&%>,#&--+&-;;+%&",
">&;.%%%% ++@*-;;&%&&&-%>%%.  +&-;$%>=%&&.+   ;-;&&###&;-+%&+==#=",
">@&=%=%.  +@*%&&&%&*&;&=%=.  +&%%>%%>%&&+    ;;&%%&#&&;;+%=%@>-@",
"&%%%=%++  +@=>>&>#&&%&%%%%.  +.&&..++        &&%&>%>%>&+>=%@===>",
"@%=%%.++  +@'%=>&#$>>;%>==.  ++              &>>%-&%=%&=>>=*@%@%",
"%%%%.+    +@@>>>&#-%&;>=>%.   +              &>&-+%%,&%%=%&&%>%%",
"..+++     +%@>&&#$->%>%%%>&   ++++&&%%%@@;   %>%>&>&- ..&+++&&&&",
"          .%@*%&%-%%%=%=-%.   +&%,,@@@**@#;  .%%&&.+;           ",
"          .%%*%=%=%>=>=>&&.    %,#-%>%%>-%;                     ",
"          .+%*=%%&%=>%%&;..   +%#;&=%,=%-.;                     ",
".+        .+%=%%&#-%>=&%;.%+  +%,;&>#,&%;.; ++.... +++++++++++++",
">>>>>>>&&  .+==;%-;%%>>>=&..  +,,&==,,>%;.  +,$$&.+.&>>>>>>>>>>>",
"*#$@@#-%%  .+%=;&&&%>%=>%%%+  +,&%&%-;>=%.   $$;& +&=###@$%>###@",
"#$;$$-;.%  .+%&&&%=%%.%%>%.+  +&%=%,&&&...   -;.& +&###&,-&%#-;%",
"$;%$-;;.%  +.+&&%%&%>%%.%.+   +%%%%..++     &-;%. +&##&&--&&#-;%",
";%%$-;;..  +.+&..              ..+          &%;%. +&%&%&-&&%#-;&",
"%=>$;..=.  +.+                  .           %%%%. +%>=%=%&=>%-;%",
"=%&&.%%%.   ..+         +++++++%%&-----&.  &=@%=& +%=>,&%=>%=&>&",
"%#-&%=@&+   %##$->>>>& +&-###$*'''####$-;  &@=@%% +&&%=%=&,&&=>%",
"%-;%%>%&+   #$$-&&>&& .+-#$%&%%&%&-&-;-;;  %@%%=, +,%&%&,,&%>&%&",
"&;%@=%>.    $-;&&&&&& .+&'&&-&#%&&&%;&-;;  %,%%%- +-;%&,$;;;%%.%",
"&&&&&.+     $;&&>;-;& ++&',%&#;&##%&;%;&;  %$%%%; +;  +;;;;++...",
".++         $;&>>&;;& ++&'#%#-&&#;&%&&&&;  %%%%@; +            +",
"         +++'&&%;%;;&  +&'$&#;&%&%&>$;=&;  ,'%@%. +             ",
"+&>>>&%%%=+ '&>%;%&&&; +&'$%-;&>>&>&$;>.;  $'==%. +             ",
"&%=$$===%%& '%*%;%%&&; +&'%#-;&&%=&%$;%.; ;-@%%$. +;---$$;;++++.",
"&>$$;&%%=%+ '>=>&&=>&; +&&#-;%&>=>&&$;&.;  -@@$-. +%-;---$$$;& .",
"&$-;&%=$$=& '=*>%=>=&;  .&-;&&%&%&=&$;%+   -@%$;. +&%%--;;;;;& .",
"&$-%>%>$;%& @*==%%>=&;  .%'%##-%>>%&$;&+  ;%*=$;. +@=%-;%%;&%& +",
"&=%%==>$;%. @@)>&==>&;  .%'=#;;&&=%%-;&+  -%*%;;; +*%=-;>==&=& +",
"&%*=>%$-;%. @@>>#)>&&;  +%*=;;&=>%&$-&&   +%*%;;; +==%-;&>&&>. +",
"&@*@=%;;;=. *@*=$%>=&;; +.>@;&&%>%;&&&%   +&%&;;; +%>>-;%&=%&.  ",
"&@*>%&;;%%. >@*>%)=%&;;  .%=&&>>=%&&%%.   +.  ;;  +&.+........  ",
"&@*=$;%%=&. &@%*>>)=&.;  .+%%%%..+ ;+.+   +.++   ++             ",
"&@*%%&%$-%. &@&=*$>=&.;                   ++++++++++++          ",
"&@$$&%$-;%. .'=*>%%%&.;          +++..&&&%%&&&&&;;;;&&&&&&&&&& .",
"&$$;%&-;;&. +@)>&;%&&.;   &-------;&&>>>>>>>>>>###$;==,$=#$;=& .",
"&$;&&&%;;&  +@*>=;>%&.;   ;########-%=>=&=%===#$;;;>>,$==$$$;& +",
"&$;&%%%=%.  +@==>%=%&.;   ;#$$$$$$$;%=>%=#-&%&$;%&##$&>=$-$;&. +",
"&$;%=%=%%.  +@>>==>=&.;    $$------;;%=>=--%%&=&%#$$&>=>%%$%%.  ",
"+;&*%@@%&.  +@;>=!%%&.     %%%-;-;;;;%>=>%&&=&&%#&&&&>>&=%$%>.  ",
"+%%*=&>@.   +>%%%%%&&.     =@=-;;;;%>=>>%=%&&##&%&%%%,$>%>$%=.  ",
"+&&%&..%.   +&&%%=%%&.     >@*;%>%%&&%-%>>=>#>>%%>=&>$;%=>%%>.  ",
"+  ......  ++&&&&&&&..     %@*%&>=$$;>%>===>%%$%$%&>$;&%>>$$%.  ",
"...        +               %*>=>&>$$;%=>>&>%,$;&>=>%&&%&%%>&%.  ",
"++++       +               %&%%%>%;;;%>%&%>,$;%%>&%>>=>%#&%&%.  ",
"+&%###-%&++.               .+       .%%&%$>;;&&>==>%%&>>&&&&&.  ",
"+%#,####$-%%%&.+          +.++       +.......................   ",
"+%#,$%%%&%=$,,###$$$$$;%&%&&..+++++                            +",
"+%=&$&==>=>=%%%--------;>>=>>>>>%+.+                          ++",
"+%==&=>%%&=%>=>>%%%%%;;;%&=@,,%=& +.+++                     +++.",
"+%>*=>=,$;>>*%*==#-&>%%%%>%%,;%&&  .+;$$$&+++...;$-;;;;+++++....",
"+%==%>&$;;=%=*>>%*==%=>*>&%*%%>&.  ++$;;;&@@>..-###-&#%%*#>&&++.",
"+%%%&&&;;%&%&%&%&&&%&%%%&&&&&&&..   +&;;;&>>>&.%&&&&&%%%#-%%@& .",
"+%&+                                +>;;&&&&%&+%%>%%##%%-;%=%. .",
"+                                   + ;;.>&>%&+&%&%##-&%;%%=%. .",
".+                                   +;;       +..;;...;;..... .",
"....++++++++                         ++++      ++              .",
"                                                                "};
